X:1
T: Doris Robertson
C:
R:Reel
Q: 232
K:A
M:4/4
L:1/8
|:((3efg)|a2 A2 Bc dB|ce fg a3g|f2 fa e2 ea|bc' bg e3d|
c2 cA d2 df|ec BA F3G|A2 a2 Bc dB|c2 e2 a2 ab|
c'2 c'a b2 bg|ab c'a e3c|B2 b2 bc' ba|g2 e2 e2 d2|
c2 cA d2 df|ea c'a e3c|de fa ge dB|c2 e2 a2:|
